web/src/components/softwareCloud/imgs/28-personalDNSfilter.svg

<svg xmlns="http://www.w3.org/2000/svg" xmlns:xlink="http://www.w3.org/1999/xlink" version="1.1" style="enable-background:new 0 0 56 56;" xml:space="preserve" width="688" height="880"><rect id="backgroundrect" width="100%" height="100%" x="0" y="0" fill="none" stroke="none" class="" style=""/>
<style type="text/css">
	.st0{fill:#0097A7;}
	.st1{fill:#FFFFFF;}
	.st2{fill:#00BCD4;}
</style>

<g class="currentLayer" style=""><title>Layer 1</title><g id="Ebene_2" class="">
	<g id="Ebene_3">
		<path id="XMLID_16_" class="st0" d="M344.1184284363063,799.570125922042 V87.96842249322498 c0,0 162.09059592452832,10.99605281236583 282.4548998288811,50.26766999938664 c0,0 -1.60485738539137,127.24003968594741 -1.60485738539137,252.90921468441405 c0,175.9368449978532 -138.01773514365777,364.44060749555314 -280.85004244348966,398.99963062013137 M687.5579089100594,92.6810165556675 c-146.04202207061462,-48.6968053119058 -332.2054787760135,-62.834587499233294 -343.439480473753,-62.834587499233294 c-11.23400169773959,0 -194.1877436323557,14.13778218732749 -343.439480473753,62.834587499233294 c0,0 0,153.9447393731216 0,306.3186140587623 C0.6789479625532715,612.637228111823 172.39868819942984,838.8417431090629 344.1184284363063,879.6842249835645 c171.7197402368765,-42.41334656198248 343.439480473753,-267.0469968717415 343.439480473753,-479.11372968165387 C687.5579089100594,248.1966206162699 687.5579089100594,92.6810165556675 687.5579089100594,92.6810165556675 "/>
		<polygon id="XMLID_15_" class="st1" points="623.3636474609375,600.070322238108 334.4892578125,843.5543626155804 339.30389404296875,45.555075835946354 631.387939453125,109.9605252590718 "/>
	</g>
	<g id="Ebene_2_1_">
		<path id="XMLID_12_" class="st2" d="M344.1184284363063,783.8614790472337 V53.40939936864668 c0,0 157.27602376835424,21.99210562473165 280.85004244348966,62.834587499233294 c0,0 1.60485738539137,130.3817690609091 1.60485738539137,259.19267343433734 c0,175.9368449978532 -138.01773514365777,388.0035778077656 -280.85004244348966,422.56260093234386 M687.5579089100594,75.40150499337834 C539.9110294540535,26.704699681472533 355.3524301340459,-5.701622285414487e-9 344.1184284363063,-5.701622285414487e-9 S149.93068480395064,25.133834993991698 0.6789479625532715,75.40150499337834 c0,0 0,153.9447393731216 0,306.3186140587623 c0,212.06673280991237 170.11488285148516,438.2712478071522 343.439480473753,479.11372968165387 c171.7197402368765,-42.41334656198248 343.439480473753,-267.0469968717415 343.439480473753,-479.11372968165387 C687.5579089100594,227.77537967901907 687.5579089100594,75.40150499337834 687.5579089100594,75.40150499337834 "/>
	</g>
	<g id="Ebene_1_2_">
		<path id="XMLID_7_" class="st2" d="M559.1693180787498,400.5704953019106 c0,-114.67312218610077 -94.68658573809081,-210.49586812243152 -215.0508896424435,-210.49586812243152 v42.41334656198248 c17.653431239305068,25.13383499969332 30.492290322436016,51.83853468686746 40.12143463478424,83.25582843648412 H344.1184284363063 v40.84248187450164 h49.75057894713245 c1.60485738539137,14.13778218732749 3.2097147707827394,26.704699687174156 3.2097147707827394,40.84248187450164 s-1.60485738539137,28.27556437465498 -3.2097147707827394,40.84248187450164 H344.1184284363063 v40.84248187450164 h40.12143463478424 c-9.629144312348222,29.84642906213581 -24.072860780870542,58.1219934367908 -40.12143463478424,83.25582843648412 v42.41334656198248 C461.2730175698763,607.9246340493805 559.1693180787498,515.2436174880113 559.1693180787498,400.5704953019106 zM509.4187391316173,356.58628405244735 c3.2097147707827394,14.13778218732749 4.814572156174111,26.704699687174156 4.814572156174111,40.84248187450164 s-1.60485738539137,28.27556437465498 -4.814572156174111,40.84248187450164 h-73.82343972800298 c1.60485738539137,-14.13778218732749 3.2097147707827394,-26.704699687174156 3.2097147707827394,-40.84248187450164 s-1.60485738539137,-28.27556437465498 -3.2097147707827394,-40.84248187450164 H509.4187391316173 L509.4187391316173,356.58628405244735 zM493.3701652777037,315.7438021779457 h-62.58943803026341 c-8.024286926956847,-26.704699687174156 -16.048573853913695,-51.83853468686746 -28.88743293704465,-73.83064031159911 C438.8050141743971,254.4800793661932 470.9021618822245,281.1847790533673 493.3701652777037,315.7438021779457 zM398.6835795396129,557.6569640499938 c12.838859083130957,-23.562970312212485 22.46800339547917,-48.6968053119058 28.88743293704465,-75.40150499907996 h62.58943803026341 C470.9021618822245,518.385346862973 438.8050141743971,545.0900465501472 398.6835795396129,557.6569640499938 z"/>
		<path id="XMLID_2_" class="st1" d="M344.1184284363063,607.9246340493805 V565.511287487398 c-17.653431239305068,-25.13383499969332 -30.492290322436016,-51.83853468686746 -40.12143463478424,-83.25582843648412 H344.1184284363063 v-40.84248187450164 h-49.75057894713245 c-1.60485738539137,-14.13778218732749 -3.2097147707827394,-26.704699687174156 -3.2097147707827394,-40.84248187450164 s1.60485738539137,-28.27556437465498 3.2097147707827394,-40.84248187450164 H344.1184284363063 v-40.84248187450164 h-40.12143463478424 c9.629144312348222,-29.84642906213581 24.072860780870542,-58.1219934367908 40.12143463478424,-83.25582843648412 v-42.41334656198248 c-117.15458913356997,0 -215.0508896424435,92.68101656136912 -215.0508896424435,210.49586812243152 C129.0675387938628,515.2436174880113 226.96383930273635,607.9246340493805 344.1184284363063,607.9246340493805 zM251.0367000836069,356.58628405244735 c-1.60485738539137,14.13778218732749 -3.2097147707827394,26.704699687174156 -3.2097147707827394,40.84248187450164 s1.60485738539137,28.27556437465498 3.2097147707827394,40.84248187450164 h-72.21858234261163 c-3.2097147707827394,-14.13778218732749 -4.814572156174111,-26.704699687174156 -4.814572156174111,-40.84248187450164 s1.60485738539137,-28.27556437465498 4.814572156174111,-40.84248187450164 H251.0367000836069 L251.0367000836069,356.58628405244735 zM289.5532773329998,241.91316186634654 c-12.838859083130957,23.562970312212485 -22.46800339547917,48.6968053119058 -28.88743293704465,73.83064031159911 h-62.58943803026341 C217.33469499038816,281.1847790533673 249.43184269821558,254.4800793661932 289.5532773329998,241.91316186634654 zM194.86669159490896,482.25545905091394 h62.58943803026341 c8.024286926956847,26.704699687174156 16.048573853913695,51.83853468686746 28.88743293704465,75.40150499907996 C249.43184269821558,545.0900465501472 217.33469499038816,518.385346862973 194.86669159490896,482.25545905091394 z"/>
	</g>
</g></g></svg>

<svg xmlns="http://www.w3.org/2000/svg" style="enable-background:new 0 0 56 56" xml:space="preserve" width="688" height="880"><rect id="backgroundrect" width="100%" height="100%" x="0" y="0" fill="none" stroke="none"/><style>.st1{fill:#fff}.st2{fill:#00bcd4}</style><g class="currentLayer"><g id="Ebene_2"><g id="Ebene_3"><path id="XMLID_16_" d="M344.118 799.57V87.968s162.091 10.996 282.455 50.268c0 0-1.605 127.24-1.605 252.91 0 175.936-138.017 364.44-280.85 398.999M687.558 92.68c-146.042-48.697-332.206-62.835-343.44-62.835-11.234 0-194.187 14.138-343.44 62.835V399c0 213.637 171.72 439.842 343.44 480.684 171.72-42.413 343.44-267.047 343.44-479.114V92.681" style="fill:#0097a7"/><path id="XMLID_15_" class="st1" d="M623.364 600.07 334.489 843.554l4.815-797.999 292.084 64.406z"/></g><g id="Ebene_2_1_"><path id="XMLID_12_" class="st2" d="M344.118 783.861V53.41s157.276 21.993 280.85 62.835c0 0 1.605 130.382 1.605 259.193 0 175.937-138.017 388.003-280.85 422.562M687.558 75.402C539.91 26.705 355.352 0 344.118 0S149.931 25.134.678 75.402V381.72c0 212.067 170.116 438.271 343.44 479.114 171.72-42.413 343.44-267.047 343.44-479.114V75.402"/></g><g id="Ebene_1_2_"><path id="XMLID_7_" class="st2" d="M559.17 400.57c0-114.673-94.687-210.495-215.052-210.495v42.413c17.654 25.134 30.493 51.839 40.122 83.256h-40.122v40.842h49.751c1.605 14.138 3.21 26.705 3.21 40.843s-1.605 28.275-3.21 40.842h-49.75v40.843h40.12c-9.628 29.846-24.072 58.122-40.12 83.256v42.413c117.154 3.142 215.05-89.54 215.05-204.213zm-49.751-43.984c3.21 14.138 4.814 26.705 4.814 40.843s-1.605 28.275-4.814 40.842h-73.824c1.605-14.138 3.21-26.704 3.21-40.842s-1.605-28.276-3.21-40.843h73.824zm-16.049-40.842h-62.59c-8.024-26.705-16.048-51.839-28.887-73.83 36.912 12.566 69.01 39.27 91.477 73.83zm-94.686 241.913c12.838-23.563 22.468-48.697 28.887-75.402h62.59c-19.259 36.13-51.356 62.835-91.477 75.402z"/><path id="XMLID_2_" class="st1" d="M344.118 607.925V565.51c-17.653-25.134-30.492-51.838-40.121-83.256h40.121v-40.842h-49.75c-1.605-14.138-3.21-26.705-3.21-40.843s1.605-28.275 3.21-40.842h49.75v-40.842h-40.121c9.63-29.847 24.073-58.122 40.121-83.256v-42.414c-117.154 0-215.05 92.681-215.05 210.496 0 111.532 97.896 204.213 215.05 204.213zm-93.081-251.339c-1.605 14.138-3.21 26.705-3.21 40.843s1.605 28.275 3.21 40.842h-72.219c-3.21-14.138-4.814-26.704-4.814-40.842s1.604-28.276 4.814-40.843h72.219zm38.516-114.673c-12.839 23.563-22.468 48.697-28.887 73.83h-62.59c19.259-34.558 51.356-61.263 91.477-73.83zm-94.686 240.342h62.59c8.023 26.705 16.048 51.839 28.887 75.402-36.912-12.567-69.01-39.272-91.477-75.402z"/></g></g></g></svg>
